src/static/logos/spring.svg

<?xml version="1.0" encoding="UTF-8" standalone="no"?>
<svg width="256px" height="254px" viewBox="0 0 256 254" version="1.1" xmlns="http://www.w3.org/2000/svg" xmlns:xlink="http://www.w3.org/1999/xlink" preserveAspectRatio="xMidYMid">
	<g fill="#6DB33F">
		<g>
			<path d="M244.896373,54.5668792 L74.6284825,1.61008271 C66.3966382,-0.949840074 57.5491985,3.63825319 54.9692762,11.8062848 L1.59875487,180.754269 C-0.981167315,188.92329 3.64277043,197.701156 11.8746148,200.261079 L182.143502,253.217875 C190.375347,255.777798 199.22179,251.189705 201.801712,243.021673 L255.172234,74.0727 C257.753152,65.9046684 253.128218,57.126802 244.896373,54.5668792 L244.896373,54.5668792 L244.896373,54.5668792 Z M81.5982568,180.535836 C81.5982568,187.754028 75.6465059,193.659641 68.3719222,193.659641 L68.3231129,193.659641 C61.0495253,193.659641 55.0977743,187.754028 55.0977743,180.535836 L55.0977743,113.288938 C55.0977743,106.070746 61.0495253,100.166121 68.3231129,100.166121 L68.3719222,100.166121 C75.6465059,100.166121 81.5982568,106.070746 81.5982568,113.288938 L81.5982568,180.535836 L81.5982568,180.535836 Z M68.3480155,87.2449359 C60.9997199,87.2449359 55.0429884,81.3343806 55.0429884,74.0440368 C55.0429884,66.7527046 60.9997199,60.8421493 68.3480155,60.8421493 C75.6953152,60.8421493 81.6520467,66.7527046 81.6520467,74.0440368 C81.6520467,81.3343806 75.6953152,87.2449359 68.3480155,87.2449359 L68.3480155,87.2449359 L68.3480155,87.2449359 Z M152.610864,193.616152 C119.494225,193.616152 92.6939144,166.420678 92.6939144,133.560759 C92.6939144,100.69985 119.541043,74.0618278 152.658677,74.0618278 C169.714055,74.0618278 185.106926,81.1268193 196.025277,92.4695505 L202.430257,81.2246697 C208.998599,98.8080775 213.275891,119.34874 213.275891,133.445118 C213.275891,166.305038 185.728498,193.616152 152.610864,193.616152 L152.610864,193.616152 L152.610864,193.616152 Z"></path>
			<path d="M129.955362,174.318881 C136.391222,172.316408 143.25242,170.208179 148.991004,168.369778 C171.651487,161.109086 191.131393,142.829854 196.281277,119.86962 C192.182288,130.670715 175.446662,151.769816 149.237043,160.176049 C140.827891,162.821961 132.104965,164.497277 123.491611,166.471087 C122.384934,166.725102 120.86786,166.442424 119.895657,165.842473 C114.375222,162.43649 111.400841,156.343084 110.931673,150.195315 C109.666615,133.653668 120.989385,120.154276 137.820638,116.659338 C144.889027,115.190594 152.166599,115.573101 159.387393,114.806112 C178.457899,112.814512 196.383876,99.2657007 201.798723,87.9397721 C201.798723,87.9397721 202.770926,90.1468406 202.980109,90.7971994 C207.07312,103.519719 210.336373,116.411253 210.654133,129.857272 C210.825463,137.119941 210.023596,144.268946 207.435705,151.130329 C202.233027,164.921295 191.611517,171.914135 177.421945,173.559799 C169.12635,174.5215 160.68333,174.309985 152.304063,174.470104 C145.503627,174.599583 137.633369,174.318881 129.955362,174.318881"></path>
			<path d="M121.522303,175.012729 C121.522303,177.816783 119.232249,180.089085 116.406288,180.089085 C113.580327,180.089085 111.290273,177.816783 111.290273,175.012729 C111.290273,172.208674 113.580327,169.936372 116.406288,169.936372 C119.232249,169.936372 121.522303,172.208674 121.522303,175.012729"></path>
		</g>
	</g>
</svg>

<svg width="256" height="254" xmlns="http://www.w3.org/2000/svg" preserveAspectRatio="xMidYMid"><g fill="#6DB33F"><path d="M244.896 54.567L74.628 1.61C66.397-.95 57.55 3.638 54.97 11.806L1.6 180.754c-2.58 8.17 2.044 16.947 10.276 19.507l170.269 52.957c8.231 2.56 17.078-2.028 19.658-10.196l53.37-168.95c2.581-8.167-2.044-16.945-10.276-19.505zM81.598 180.536c0 7.218-5.951 13.124-13.226 13.124h-.049c-7.273 0-13.225-5.906-13.225-13.124v-67.247c0-7.218 5.952-13.123 13.225-13.123h.049c7.275 0 13.226 5.905 13.226 13.123v67.247zm-13.25-93.291c-7.348 0-13.305-5.91-13.305-13.201S61 60.842 68.348 60.842c7.347 0 13.304 5.91 13.304 13.202 0 7.29-5.957 13.2-13.304 13.2zm84.263 106.371c-33.117 0-59.917-27.195-59.917-60.055 0-32.861 26.847-59.5 59.965-59.5 17.055 0 32.448 7.066 43.366 18.409l6.405-11.245c6.569 17.583 10.846 38.124 10.846 52.22 0 32.86-27.548 60.171-60.665 60.171z"/><path d="M129.955 174.319c6.436-2.003 13.297-4.11 19.036-5.95 22.66-7.26 42.14-25.54 47.29-48.5-4.099 10.802-20.834 31.9-47.044 40.307-8.41 2.646-17.132 4.321-25.745 6.295-1.107.254-2.624-.029-3.596-.629-5.52-3.406-8.495-9.499-8.964-15.647-1.265-16.541 10.057-30.04 26.889-33.536 7.068-1.468 14.346-1.086 21.566-1.853 19.07-1.991 36.997-15.54 42.412-26.866 0 0 .972 2.207 1.181 2.857 4.093 12.723 7.356 25.614 7.674 39.06.171 7.263-.63 14.412-3.218 21.273-5.203 13.791-15.824 20.784-30.014 22.43-8.296.962-16.739.75-25.118.91-6.8.13-14.67-.151-22.349-.151m-8.433.694c0 2.804-2.29 5.076-5.116 5.076-2.826 0-5.116-2.272-5.116-5.076s2.29-5.077 5.116-5.077c2.826 0 5.116 2.273 5.116 5.077"/></g></svg>
